; generated by PrusaSlicer 2.1.0-rc+linux64 on 2019-10-03 at 11:37:57

; 

; external perimeters extrusion width = 0.45mm
; perimeters extrusion width = 0.45mm
; infill extrusion width = 0.45mm
; solid infill extrusion width = 0.45mm
; top infill extrusion width = 0.40mm
; support material extrusion width = 0.35mm
; first layer extrusion width = 0.42mm

M201 X1000 Y1000 Z1000 E5000 ; sets maximum accelerations, mm/sec^2
M203 X200 Y200 Z12 E120 ; sets maximum feedrates, mm/sec
M204 P1250 R1250 T1250 ; sets acceleration (P, T) and retract acceleration (R), mm/sec^2
M205 X8.00 Y8.00 Z0.40 E1.50 ; sets the jerk limits, mm/sec
M205 S0 T0 ; sets the minimum extruding and travel feed rate, mm/sec
M107
M117 Heating... ;Put printing message on LCD screen
M300 S2500 P100; Beep
;M221 S95 ; Set flow
M104 S215 ; set extruder temp
M140 S60 ; set bed temp
G1 Z20 ; this is a good start heating position
G28 X Y; Home XY
M84 ; disable motors
M190 S60 ; wait for bed temp
M109 S215 ; wait for extruder temp

; Start of print
G21; metric values
G90 ; absolute positioning
M82; set extruder to absolute mode

G28;

; Prepare nozzle
G92 E0 ; Set extrusion distance to 0
G92 E0 ; Set extrusion distance to 0
G1 F1800 E3;
G92 E0 ; Set extrusion distance to 0
G90;


; You may want to adjust the X and Y here so the nozzle is really above the bed!
G1 X5.0 Y5.0 F7200 ; Move to a position in the left front of the bed
G1 Z0.6; Move nozzle above 0.6 mm of the bed

G91 ; Use relative mode
; Make some jerky zick-zack move at the beginning
; This is supposed to get rid of residue at the nozzle
G1 X1.0 Y5.0 Z-0.1 E-1.0 F7200 ; X6 Y10 Z0.1, retract a tiny bit / 120mm/s
G1 X1.0 Y-5.0 Z0.1 E2.0 F7200 ; X7 Y5 Z0.2 extrude a tiny bit
G1 X2.0 Y5.0 Z-0.1 F7200 ; X9 Y10 Z0.1
G1 X2.0 Y-5.0 Z0.1 F7200 ; X11 Y5 Z0.2
G1 X2.0 Y5.0 F7200 ; X13 Y10
G1 X2.0 Y-5.0 F7200 ; X15 Y5

; now print a line of filament to prepare extrusion
G1 Y50 E20 F1000 ; prints a line in the front
G1 Y50 E40 F1000 ; prints a line in the front

; Done with the dancing :)
G92 E0 ; Set extrusion distance to 0
G90 ; switch back to absolute mode

M117 Printing... ;Put printing message on LCD screen
; Start of actual GCode for the print
G21 ; set units to millimeters
G90 ; use absolute coordinates
M83 ; use relative distances for extrusion
M900 K200 ; Filament gcode
;BEFORE_LAYER_CHANGE
;Layer 0
;0.35mm
;Printing layer 0 at 0.35mm


G1 E-6.80000 F3600.00000
G1 Z0.600 F7800.000
;AFTER_LAYER_CHANGE
;Layer 0
;0.35mm
;Printing layer 0 at 0.35mm


G1 X88.845 Y90.979
G1 Z0.350
G1 E6.80000 F3600.00000
G1 F1800
G1 X89.755 Y90.293 E0.05721
G1 X90.776 Y89.786 E0.05721
G1 X91.873 Y89.475 E0.05721
G1 X93.008 Y89.371 E0.05721
G1 X117.907 Y89.527 E1.24961
G1 X119.209 Y89.682 E0.06580
G1 X120.065 Y89.945 E0.04493
G1 X120.874 Y90.328 E0.04493
G1 X136.010 Y99.200 E0.88046
G1 X136.995 Y100.119 E0.06763
G1 X137.758 Y101.230 E0.06763
G1 X138.261 Y102.481 E0.06763
G1 X138.481 Y103.816 E0.06794
G1 X138.476 Y119.124 E0.76821
G1 X138.356 Y119.998 E0.04432
G1 X138.109 Y120.853 E0.04463
G1 X137.742 Y121.663 E0.04463
G1 X137.263 Y122.412 E0.04463
G1 X136.741 Y123.023 E0.04032
G1 X136.150 Y123.557 E0.04002
G1 X135.489 Y124.014 E0.04032
G1 X134.774 Y124.381 E0.04032
G1 X120.017 Y130.123 E0.79468
G1 X118.688 Y130.463 E0.06886
G1 X117.856 Y130.523 E0.04186
G1 X104.012 Y130.523 E0.69477
G1 X92.723 Y130.361 E0.56660
G1 X91.810 Y130.252 E0.04616
G1 X90.923 Y130.007 E0.04616
G1 X90.082 Y129.634 E0.04616
G1 X89.306 Y129.140 E0.04616
G1 X88.341 Y128.244 E0.06610
G1 X87.585 Y127.158 E0.06641
G1 X87.078 Y125.936 E0.06641
G1 X86.844 Y124.640 E0.06610
G1 X86.854 Y94.974 E1.48880
G1 X87.064 Y93.853 E0.05721
G1 X87.476 Y92.790 E0.05721
G1 X88.076 Y91.821 E0.05721
G1 X88.804 Y91.024 E0.05420
G1 E-4.08000 F3600.00000
G1 F6240
G1 X89.755 Y90.293 E-0.65717
G1 X90.776 Y89.786 E-0.62482
G1 X91.873 Y89.475 E-0.62482
G1 X93.008 Y89.371 E-0.62482
G1 X93.104 Y89.372 E-0.05237
G1 E-0.13600 F3600.00000
G1 Z0.950 F7800.000
G1 X93.000 Y95.544
G1 Z0.350
G1 E6.80000 F3600.00000
G1 F1800
G1 X93.000 Y101.103 E0.27897
G1 X93.690 Y101.103 E0.03462
G1 X93.690 Y95.699 E0.27118
G1 X94.380 Y95.699 E0.03462
G1 X94.380 Y101.103 E0.27118
G1 X95.069 Y101.103 E0.03462
G1 X95.069 Y95.699 E0.27118
G1 X95.759 Y95.699 E0.03462
G1 X95.759 Y101.103 E0.27118
G1 X96.449 Y101.103 E0.03462
G1 X96.449 Y95.699 E0.27118
G1 X97.139 Y95.699 E0.03462
G1 X97.139 Y101.103 E0.27118
G1 X97.828 Y101.103 E0.03462
G1 X97.828 Y95.699 E0.27118
G1 X98.518 Y95.699 E0.03462
G1 X98.518 Y101.103 E0.27118
G1 X99.208 Y101.103 E0.03462
G1 X99.208 Y95.699 E0.27118
G1 X99.898 Y95.699 E0.03462
G1 X99.898 Y101.103 E0.27118
G1 X100.588 Y101.103 E0.03462
G1 X100.588 Y95.699 E0.27118
G1 X101.277 Y95.699 E0.03462
G1 X101.277 Y101.103 E0.27118
G1 X101.967 Y101.103 E0.03462
G1 X101.967 Y95.699 E0.27118
G1 X102.657 Y95.699 E0.03462
G1 X102.657 Y101.103 E0.27118
G1 X103.347 Y101.103 E0.03462
G1 X103.347 Y95.699 E0.27118
G1 X104.036 Y95.699 E0.03462
G1 X104.036 Y101.258 E0.27897
G1 E-4.08000 F3600.00000
G1 F6240
G1 X104.036 Y96.543 E-2.58400
G1 E-0.13600 F3600.00000
G1 Z0.950 F7800.000
G1 X107.485 Y101.258
G1 Z0.350
G1 E6.80000 F3600.00000
G1 F1800
G1 X107.485 Y95.699 E0.27897
G1 X108.175 Y95.699 E0.03462
G1 X108.175 Y101.103 E0.27118
G1 X108.865 Y101.103 E0.03462
G1 X108.865 Y95.699 E0.27118
G1 X109.555 Y95.699 E0.03462
G1 X109.555 Y101.103 E0.27118
G1 X110.244 Y101.103 E0.03462
G1 X110.244 Y95.699 E0.27118
G1 X110.934 Y95.699 E0.03462
G1 X110.934 Y101.103 E0.27118
G1 X111.624 Y101.103 E0.03462
G1 X111.624 Y95.699 E0.27118
G1 X112.314 Y95.699 E0.03462
G1 X112.314 Y101.103 E0.27118
G1 X113.004 Y101.103 E0.03462
G1 X113.004 Y95.699 E0.27118
G1 X113.693 Y95.699 E0.03462
G1 X113.693 Y101.103 E0.27118
G1 X114.383 Y101.103 E0.03462
G1 X114.383 Y95.699 E0.27118
G1 X115.073 Y95.699 E0.03462
G1 X115.073 Y101.103 E0.27118
G1 X115.763 Y101.103 E0.03462
G1 X115.763 Y95.699 E0.27118
G1 X116.452 Y95.699 E0.03462
G1 X116.452 Y101.103 E0.27118
G1 X117.142 Y101.103 E0.03462
G1 X117.142 Y95.699 E0.27118
G1 X117.832 Y95.699 E0.03462
G1 X117.832 Y101.258 E0.27897
G1 E-4.08000 F3600.00000
G1 F6240
G1 X117.832 Y96.543 E-2.58400
G1 E-0.13600 F3600.00000
G1 Z0.950 F7800.000
G1 X119.901 Y103.991
G1 Z0.350
G1 E6.80000 F3600.00000
G1 F1800
G1 X119.901 Y118.564 E0.73135
G1 X120.591 Y118.564 E0.03462
G1 X120.591 Y104.146 E0.72356
G1 X121.281 Y104.146 E0.03462
G1 X121.281 Y118.564 E0.72356
G1 X121.971 Y118.564 E0.03462
G1 X121.971 Y104.146 E0.72356
G1 X122.660 Y104.146 E0.03462
G1 X122.660 Y118.564 E0.72356
G1 X123.350 Y118.564 E0.03462
G1 X123.350 Y104.146 E0.72356
G1 X124.040 Y104.146 E0.03462
G1 X124.040 Y118.564 E0.72356
G1 X124.730 Y118.564 E0.03462
G1 X124.730 Y104.146 E0.72356
G1 X125.420 Y104.146 E0.03462
G1 X125.420 Y118.564 E0.72356
G1 X126.109 Y118.564 E0.03462
G1 X126.109 Y104.146 E0.72356
G1 X126.799 Y104.146 E0.03462
G1 X126.799 Y118.564 E0.72356
G1 X127.489 Y118.564 E0.03462
G1 X127.489 Y104.146 E0.72356
G1 X128.179 Y104.146 E0.03462
G1 X128.179 Y118.564 E0.72356
G1 X128.868 Y118.564 E0.03462
G1 X128.868 Y104.146 E0.72356
G1 X129.558 Y104.146 E0.03462
G1 X129.558 Y118.564 E0.72356
G1 X130.248 Y118.564 E0.03462
G1 X130.248 Y104.146 E0.72356
G1 X130.938 Y104.146 E0.03462
G1 X130.938 Y118.564 E0.72356
G1 X131.628 Y118.564 E0.03462
G1 X131.628 Y104.146 E0.72356
G1 X132.317 Y104.146 E0.03462
G1 X132.317 Y118.719 E0.73135
G1 E-4.08000 F3600.00000
G1 F6240
G1 X132.317 Y114.004 E-2.58400
G1 E-0.13600 F3600.00000
G1 Z0.950 F7800.000
G1 X117.832 Y124.350
G1 Z0.350
G1 E6.80000 F3600.00000
G1 F1800
G1 X117.832 Y118.897 E0.27365
G1 X117.142 Y118.897 E0.03462
G1 X117.142 Y124.195 E0.26586
G1 X116.452 Y124.195 E0.03462
G1 X116.452 Y118.897 E0.26586
G1 X115.763 Y118.897 E0.03462
G1 X115.763 Y124.195 E0.26586
G1 X115.073 Y124.195 E0.03462
G1 X115.073 Y118.897 E0.26586
G1 X114.383 Y118.897 E0.03462
G1 X114.383 Y124.195 E0.26586
G1 X113.693 Y124.195 E0.03462
G1 X113.693 Y118.897 E0.26586
G1 X113.004 Y118.897 E0.03462
G1 X113.004 Y124.195 E0.26586
G1 X112.314 Y124.195 E0.03462
G1 X112.314 Y118.897 E0.26586
G1 X111.624 Y118.897 E0.03462
G1 X111.624 Y124.195 E0.26586
G1 X110.934 Y124.195 E0.03462
G1 X110.934 Y118.897 E0.26586
G1 X110.244 Y118.897 E0.03462
G1 X110.244 Y124.195 E0.26586
G1 X109.555 Y124.195 E0.03462
G1 X109.555 Y118.897 E0.26586
G1 X108.865 Y118.897 E0.03462
G1 X108.865 Y124.195 E0.26586
G1 X108.175 Y124.195 E0.03462
G1 X108.175 Y118.897 E0.26586
G1 X107.485 Y118.897 E0.03462
G1 X107.485 Y124.350 E0.27365
G1 E-4.08000 F3600.00000
G1 F6240
G1 X107.485 Y119.635 E-2.58400
G1 E-0.13600 F3600.00000
G1 Z0.950 F7800.000
G1 X104.036 Y124.350
G1 Z0.350
G1 E6.80000 F3600.00000
G1 F1800
G1 X104.036 Y118.897 E0.27365
G1 X103.347 Y118.897 E0.03462
G1 X103.347 Y124.195 E0.26586
G1 X102.657 Y124.195 E0.03462
G1 X102.657 Y118.897 E0.26586
G1 X101.967 Y118.897 E0.03462
G1 X101.967 Y124.195 E0.26586
G1 X101.277 Y124.195 E0.03462
G1 X101.277 Y118.897 E0.26586
G1 X100.588 Y118.897 E0.03462
G1 X100.588 Y124.195 E0.26586
G1 X99.898 Y124.195 E0.03462
G1 X99.898 Y118.897 E0.26586
G1 X99.208 Y118.897 E0.03462
G1 X99.208 Y124.195 E0.26586
G1 X98.518 Y124.195 E0.03462
G1 X98.518 Y118.897 E0.26586
G1 X97.828 Y118.897 E0.03462
G1 X97.828 Y124.195 E0.26586
G1 X97.139 Y124.195 E0.03462
G1 X97.139 Y118.897 E0.26586
G1 X96.449 Y118.897 E0.03462
G1 X96.449 Y124.195 E0.26586
G1 X95.759 Y124.195 E0.03462
G1 X95.759 Y118.897 E0.26586
G1 X95.069 Y118.897 E0.03462
G1 X95.069 Y124.195 E0.26586
G1 X94.380 Y124.195 E0.03462
G1 X94.380 Y118.897 E0.26586
G1 X93.690 Y118.897 E0.03462
G1 X93.690 Y124.195 E0.26586
G1 X93.000 Y124.195 E0.03462
G1 X93.000 Y118.742 E0.27365
G1 E-4.08000 F3600.00000
G1 F6240
G1 X93.000 Y123.457 E-2.58400
G1 E-0.13600 F3600.00000
G1 Z0.950 F7800.000
G1 X104.036 Y115.258
G1 Z0.350
G1 E6.80000 F3600.00000
G1 F1800
G1 X104.036 Y104.897 E0.51994
G1 X103.347 Y104.897 E0.03462
G1 X103.347 Y115.103 E0.51215
G1 X102.657 Y115.103 E0.03462
G1 X102.657 Y104.897 E0.51215
G1 X101.967 Y104.897 E0.03462
G1 X101.967 Y115.103 E0.51215
G1 X101.277 Y115.103 E0.03462
G1 X101.277 Y104.897 E0.51215
G1 X100.588 Y104.897 E0.03462
G1 X100.588 Y115.103 E0.51215
G1 X99.898 Y115.103 E0.03462
G1 X99.898 Y104.897 E0.51215
G1 X99.208 Y104.897 E0.03462
G1 X99.208 Y115.103 E0.51215
G1 X98.518 Y115.103 E0.03462
G1 X98.518 Y104.897 E0.51215
G1 X97.828 Y104.897 E0.03462
G1 X97.828 Y115.103 E0.51215
G1 X97.139 Y115.103 E0.03462
G1 X97.139 Y104.897 E0.51215
G1 X96.449 Y104.897 E0.03462
G1 X96.449 Y115.103 E0.51215
G1 X95.759 Y115.103 E0.03462
G1 X95.759 Y104.897 E0.51215
G1 X95.069 Y104.897 E0.03462
G1 X95.069 Y115.103 E0.51215
G1 X94.380 Y115.103 E0.03462
G1 X94.380 Y104.897 E0.51215
G1 X93.690 Y104.897 E0.03462
G1 X93.690 Y115.103 E0.51215
G1 X93.000 Y115.103 E0.03462
G1 X93.000 Y104.742 E0.51994
G1 E-4.08000 F3600.00000
G1 F6240
G1 X93.000 Y109.457 E-2.58400
G1 E-0.13600 F3600.00000
G1 Z0.950 F7800.000
G1 X107.485 Y115.258
G1 Z0.350
G1 E6.80000 F3600.00000
G1 F1800
G1 X107.485 Y104.897 E0.51994
G1 X108.175 Y104.897 E0.03462
G1 X108.175 Y115.103 E0.51215
G1 X108.865 Y115.103 E0.03462
G1 X108.865 Y104.897 E0.51215
G1 X109.555 Y104.897 E0.03462
G1 X109.555 Y115.103 E0.51215
G1 X110.244 Y115.103 E0.03462
G1 X110.244 Y104.897 E0.51215
G1 X110.934 Y104.897 E0.03462
G1 X110.934 Y115.103 E0.51215
G1 X111.624 Y115.103 E0.03462
G1 X111.624 Y104.897 E0.51215
G1 X112.314 Y104.897 E0.03462
G1 X112.314 Y115.103 E0.51215
G1 X113.004 Y115.103 E0.03462
G1 X113.004 Y104.897 E0.51215
G1 X113.693 Y104.897 E0.03462
G1 X113.693 Y115.103 E0.51215
G1 X114.383 Y115.103 E0.03462
G1 X114.383 Y104.897 E0.51215
G1 X115.073 Y104.897 E0.03462
G1 X115.073 Y115.258 E0.51994
G1 E-4.08000 F3600.00000
G1 F6240
G1 X115.073 Y110.543 E-2.58400
G1 E-0.13600 F3600.00000
G1 Z0.950 F7800.000
G1 X118.100 Y117.600
G1 Z0.350
G1 E6.80000 F3600.00000
G1 F1800
G1 X93.900 Y117.600 E1.21452
G1 X93.900 Y116.400 E0.06025
G1 X116.900 Y116.400 E1.15428
G1 X116.900 Y103.600 E0.64236
G1 X93.900 Y103.600 E1.15428
G1 X93.900 Y102.400 E0.06025
G1 X118.100 Y102.400 E1.21452
G1 X118.100 Y117.540 E0.75984
G1 E-4.08000 F3600.00000
G1 F6240
G1 X113.386 Y117.552 E-2.58400
G1 E-0.13600 F3600.00000
G1 Z0.950 F7800.000
G1 X116.555 Y116.055
G1 Z0.350
G1 E6.80000 F3600.00000
G1 F1800
G1 X116.555 Y103.945 E0.60774
G1 X93.555 Y103.945 E1.15428
G1 X93.555 Y102.055 E0.09486
G1 X118.445 Y102.055 E1.24914
G1 X118.445 Y117.945 E0.79747
G1 X93.555 Y117.945 E1.24914
G1 X93.555 Y116.055 E0.09486
G1 X116.495 Y116.055 E1.15126
G1 X116.210 Y115.710 F7800.000
G1 F1800
G1 X116.210 Y104.290 E0.57312
G1 X93.210 Y104.290 E1.15428
G1 X93.210 Y101.710 E0.12948
G1 X118.790 Y101.710 E1.28376
G1 X118.790 Y118.290 E0.83208
G1 X93.210 Y118.290 E1.28376
G1 X93.210 Y115.710 E0.12948
G1 X116.150 Y115.710 E1.15126
G1 X116.610 Y115.695 F7800.000
G1 E-4.08000 F3600.00000
G1 F6240
G1 X116.175 Y110.995 E-2.58400
G1 E-0.13600 F3600.00000
G1 Z0.950 F7800.000
G1 X117.997 Y104.666
G1 Z0.350
G1 E6.80000 F3600.00000
G1 F1800
G1 X117.158 Y103.827 E0.05956
G1 X117.158 Y104.316 E0.02452
G1 X117.842 Y104.999 E0.04853
G1 X117.842 Y105.487 E0.02452
G1 X117.158 Y104.804 E0.04853
G1 X117.158 Y105.292 E0.02452
G1 X117.842 Y105.975 E0.04853
G1 X117.842 Y106.463 E0.02452
G1 X117.158 Y105.780 E0.04853
G1 X117.158 Y106.268 E0.02452
G1 X117.842 Y106.952 E0.04853
G1 X117.842 Y107.440 E0.02452
G1 X117.158 Y106.757 E0.04853
G1 X117.158 Y107.245 E0.02452
G1 X117.842 Y107.928 E0.04853
G1 X117.842 Y108.416 E0.02452
G1 X117.158 Y107.733 E0.04853
G1 X117.158 Y108.221 E0.02452
G1 X117.842 Y108.904 E0.04853
G1 X117.842 Y109.393 E0.02452
G1 X117.158 Y108.709 E0.04853
G1 X117.158 Y109.198 E0.02452
G1 X117.842 Y109.881 E0.04853
G1 X117.842 Y110.369 E0.02452
G1 X117.158 Y109.686 E0.04853
G1 X117.158 Y110.174 E0.02452
G1 X117.842 Y110.857 E0.04853
G1 X117.842 Y111.345 E0.02452
G1 X117.158 Y110.662 E0.04853
G1 X117.158 Y111.150 E0.02452
G1 X117.842 Y111.834 E0.04853
G1 X117.842 Y112.322 E0.02452
G1 X117.158 Y111.639 E0.04853
G1 X117.158 Y112.127 E0.02452
G1 X117.842 Y112.810 E0.04853
G1 X117.842 Y113.298 E0.02452
G1 X117.158 Y112.615 E0.04853
G1 X117.158 Y113.103 E0.02452
G1 X117.842 Y113.786 E0.04853
G1 X117.842 Y114.275 E0.02452
G1 X117.158 Y113.591 E0.04853
G1 X117.158 Y114.080 E0.02452
G1 X117.842 Y114.763 E0.04853
G1 X117.842 Y115.251 E0.02452
G1 X117.158 Y114.568 E0.04853
G1 X117.158 Y115.056 E0.02452
G1 X117.842 Y115.739 E0.04853
G1 X117.842 Y116.227 E0.02452
G1 X117.158 Y115.544 E0.04853
G1 X117.158 Y116.032 E0.02452
G1 X117.842 Y116.716 E0.04853
G1 X117.842 Y117.204 E0.02452
G1 X117.158 Y116.521 E0.04853
G1 X117.158 Y116.658 E0.00692
G1 X116.808 Y116.658 E0.01760
G1 X117.491 Y117.342 E0.04853
G1 X117.003 Y117.342 E0.02452
G1 X116.320 Y116.658 E0.04853
G1 X115.832 Y116.658 E0.02452
G1 X116.515 Y117.342 E0.04853
G1 X116.027 Y117.342 E0.02452
G1 X115.343 Y116.658 E0.04853
G1 X114.855 Y116.658 E0.02452
G1 X115.538 Y117.342 E0.04853
G1 X115.050 Y117.342 E0.02452
G1 X114.367 Y116.658 E0.04853
G1 X113.879 Y116.658 E0.02452
G1 X114.562 Y117.342 E0.04853
G1 X114.074 Y117.342 E0.02452
G1 X113.391 Y116.658 E0.04853
G1 X112.902 Y116.658 E0.02452
G1 X113.586 Y117.342 E0.04853
G1 X113.097 Y117.342 E0.02452
G1 X112.414 Y116.658 E0.04853
G1 X111.926 Y116.658 E0.02452
G1 X112.609 Y117.342 E0.04853
G1 X112.121 Y117.342 E0.02452
G1 X111.438 Y116.658 E0.04853
G1 X110.950 Y116.658 E0.02452
G1 X111.633 Y117.342 E0.04853
G1 X111.145 Y117.342 E0.02452
G1 X110.461 Y116.658 E0.04853
G1 X109.973 Y116.658 E0.02452
G1 X110.656 Y117.342 E0.04853
G1 X110.168 Y117.342 E0.02452
G1 X109.485 Y116.658 E0.04853
G1 X108.997 Y116.658 E0.02452
G1 X109.680 Y117.342 E0.04853
G1 X109.192 Y117.342 E0.02452
G1 X108.509 Y116.658 E0.04853
G1 X108.020 Y116.658 E0.02452
G1 X108.704 Y117.342 E0.04853
G1 X108.215 Y117.342 E0.02452
G1 X107.532 Y116.658 E0.04853
G1 X107.044 Y116.658 E0.02452
G1 X107.727 Y117.342 E0.04853
G1 X107.239 Y117.342 E0.02452
G1 X106.556 Y116.658 E0.04853
G1 X106.068 Y116.658 E0.02452
G1 X106.751 Y117.342 E0.04853
G1 X106.263 Y117.342 E0.02452
G1 X105.579 Y116.658 E0.04853
G1 X105.091 Y116.658 E0.02452
